Gurmukhi/0A30.svg

<svg enable-background="new 0 0 336 592" viewBox="0 0 336 592" xmlns="http://www.w3.org/2000/svg"><path d="m105.949844 296.398987c4.749062-18.744385 17.312775-29.458466 36.958969-31.73642 18.105484-2.099335 36.283127-.511688 54.422593-.947296 7.224487-.173553 7.241729-.040009 7.247696-7.084442.009155-10.832184.011581-21.664414-.011902-32.496567-.01442-6.658783-.336914-6.977234-7.141205-6.978882-32.496597-.007828-64.993744-.090225-97.48922.102448-4.736336.028091-7.500328-1.205948-8.701828-5.980652-.847595-3.368332-2.484314-6.530502-3.62043-9.835709-1.428596-4.156143-.264747-5.852874 4.18129-6.267807 1.32328-.123504 2.66407-.078781 3.996834-.078644 51.661277.00528 103.322548.008027 154.983818.028458 9.845306.003906 9.670166.109253 13.435333 9.246506 5.031494 12.210373 4.008789 13.179993-9.059265 12.810821-6.493775-.183471-13.003876.166108-19.494629-.063598-4.134018-.146302-5.404572 1.375656-5.389938 5.496277.132537 37.328994.05249 74.658645.096084 111.988021.009583 8.205903-1.046676 16.259552-3.032791 24.189423-6.368133 25.425995-23.388138 33.65094-46.379501 29.90799-34.2874-5.581849-67.799668-38.650544-74.865761-72.543122-1.338806-6.42157-1.188294-12.881469-.136147-19.756805m90.167221 67.221252c3.755036-4.273498 5.666871-9.422577 6.522644-14.898956 3.075898-19.683838 1.695313-39.529327 1.901124-59.31601.033874-3.258514-1.910569-4.134429-4.910431-4.101623-9.493271.103851-18.989319.105682-28.482682.000946-7.021331-.077423-13.988601.21109-20.81015 2.019073-12.458633 3.302033-18.965225 11.789704-19.000381 24.711304-.059174 21.751557 23.698761 51.682648 44.808563 56.709168 7.38736 1.759094 13.825973.484802 19.971313-5.123902z"/></svg>

<svg version="1.1" id="Layer_1" xmlns="http://www.w3.org/2000/svg" xmlns:xlink="http://www.w3.org/1999/xlink" x="0px" y="0px"
	 width="100%" viewBox="0 0 336 592" enable-background="new 0 0 336 592" xml:space="preserve">
<path fill="#000000" opacity="1.000000" stroke="none" 
	d="
M105.949844,296.398987 
	C110.698906,277.654602 123.262619,266.940521 142.908813,264.662567 
	C161.014297,262.563232 179.191940,264.150879 197.331406,263.715271 
	C204.555893,263.541718 204.573135,263.675262 204.579102,256.630829 
	C204.588257,245.798645 204.590683,234.966415 204.567200,224.134262 
	C204.552780,217.475479 204.230286,217.157028 197.425995,217.155380 
	C164.929398,217.147552 132.432251,217.065155 99.936775,217.257828 
	C95.200439,217.285919 92.436447,216.051880 91.234947,211.277176 
	C90.387352,207.908844 88.750633,204.746674 87.614517,201.441467 
	C86.185921,197.285324 87.349770,195.588593 91.795807,195.173660 
	C93.119087,195.050156 94.459877,195.094879 95.792641,195.095016 
	C147.453918,195.100296 199.115189,195.103043 250.776459,195.123474 
	C260.621765,195.127380 260.446625,195.232727 264.211792,204.369980 
	C269.243286,216.580353 268.220581,217.549973 255.152527,217.180801 
	C248.658752,216.997330 242.148651,217.346909 235.657898,217.117203 
	C231.523880,216.970901 230.253326,218.492859 230.267960,222.613480 
	C230.400497,259.942474 230.320450,297.272125 230.364044,334.601501 
	C230.373627,342.807404 229.317368,350.861053 227.331253,358.790924 
	C220.963120,384.216919 203.943115,392.441864 180.951752,388.698914 
	C146.664352,383.117065 113.152084,350.048370 106.085991,316.155792 
	C104.747185,309.734222 104.897697,303.274323 105.949844,296.398987 
M196.117065,363.620239 
	C199.872101,359.346741 201.783936,354.197662 202.639709,348.721283 
	C205.715607,329.037445 204.335022,309.191956 204.540833,289.405273 
	C204.574707,286.146759 202.630264,285.270844 199.630402,285.303650 
	C190.137131,285.407501 180.641083,285.409332 171.147720,285.304596 
	C164.126389,285.227173 157.159119,285.515686 150.337570,287.323669 
	C137.878937,290.625702 131.372345,299.113373 131.337189,312.034973 
	C131.278015,333.786530 155.035950,363.717621 176.145752,368.744141 
	C183.533112,370.503235 189.971725,369.228943 196.117065,363.620239 
z"/>
</svg>
